icons/mimetypes/22/android-package-archive.svg

<svg version="1.1" viewBox="0 0 22 22" xmlns="http://www.w3.org/2000/svg">
 <path d="m3.4980469 2.9960938a0.50005 0.50005 0 0 0-0.3476563 0.8574218l1.859375 1.859375a8 8 0 0 0-2.0097656 5.2871094v8h16v-8a8 8 0 0 0-1.998047-5.2792969l1.859375-1.859375a0.50005 0.50005 0 0 0-0.357422-0.8613281 0.50005 0.50005 0 0 0-0.349609 0.1542969l-1.861328 1.8613281a8 8 0 0 0-5.292969-2.015625 8 8 0 0 0-5.2851562 2.0039062l-1.8574219-1.8574218a0.50005 0.50005 0 0 0-0.359375-0.1503906zm7.4101561 1.0039062a7 7 0 0 1 0.091797 0 7 7 0 0 1 4.587891 1.7207031 7 7 0 0 1 0.703125 0.7109375 7 7 0 0 1 1.708984 4.5683594h-14a7 7 0 0 1 1.7148438-4.5820312 7 7 0 0 1 0.6425781-0.6445313 7 7 0 0 1 0.0664062-0.0605469 7 7 0 0 1 4.4843749-1.7128906zm-2.908203 3a1 1 0 0 0-1 1 1 1 0 0 0 1 1 1 1 0 0 0 1-1 1 1 0 0 0-1-1zm6 0a1 1 0 0 0-1 1 1 1 0 0 0 1 1 1 1 0 0 0 1-1 1 1 0 0 0-1-1zm-10 5h6v1h1v-1h7v6h-14zm7 1v1h1v-1zm0 1h-1v2h2v-1h-1z" fill="#9bd916"/>
</svg>

<!-- Created with Inkscape (http://www.inkscape.org/) --><svg xmlns:dc="http://purl.org/dc/elements/1.1/" xmlns:cc="http://creativecommons.org/ns#" xmlns:rdf="http://www.w3.org/1999/02/22-rdf-syntax-ns#" xmlns:svg="http://www.w3.org/2000/svg" xmlns="http://www.w3.org/2000/svg" xmlns:sodipodi="http://sodipodi.sourceforge.net/DTD/sodipodi-0.dtd" xmlns:inkscape="http://www.inkscape.org/namespaces/inkscape" width="22" version="1.1" height="22" id="svg2" inkscape:version="0.91 r13725" sodipodi:docname="android-package-archive.svg">
  <sodipodi:namedview pagecolor="#ffffff" bordercolor="#666666" borderopacity="1" objecttolerance="10" gridtolerance="10" guidetolerance="10" inkscape:pageopacity="0" inkscape:pageshadow="2" inkscape:window-width="709" inkscape:window-height="480" id="namedview15" showgrid="false" inkscape:zoom="10.727273" inkscape:cx="0.6059322" inkscape:cy="11" inkscape:window-x="0" inkscape:window-y="0" inkscape:window-maximized="0" inkscape:current-layer="layer1"/>
  <defs id="defs3871"/>
  <metadata id="metadata3874">
    <rdf:RDF>
      <cc:Work rdf:about="">
        <dc:format>image/svg+xml</dc:format>
        <dc:type rdf:resource="http://purl.org/dc/dcmitype/StillImage"/>
      </cc:Work>
    </rdf:RDF>
  </metadata>
  <g inkscape:label="Capa 1" inkscape:groupmode="layer" id="layer1" transform="matrix(1 0 0 1 -326 -534.3622)">
    <g inkscape:label="Capa 1" id="layer1-23" style="fill:#9bd916;fill-opacity:1">
      <path style="fill:#9bd916;stroke-width:2;fill-opacity:1" id="rect4723" d="M 3.4980469 2.9960938 A 0.50005 0.50005 0 0 0 3.1503906 3.8535156 L 5.0097656 5.7128906 A 8 8 0 0 0 3 11 L 3 19 L 19 19 L 19 11 A 8 8 0 0 0 17.001953 5.7207031 L 18.861328 3.8613281 A 0.50005 0.50005 0 0 0 18.503906 3 A 0.50005 0.50005 0 0 0 18.154297 3.1542969 L 16.292969 5.015625 A 8 8 0 0 0 11 3 A 8 8 0 0 0 5.7148438 5.0039062 L 3.8574219 3.1464844 A 0.50005 0.50005 0 0 0 3.4980469 2.9960938 z M 10.908203 4 A 7 7 0 0 1 11 4 A 7 7 0 0 1 15.587891 5.7207031 A 7 7 0 0 1 16.291016 6.4316406 A 7 7 0 0 1 18 11 L 4 11 A 7 7 0 0 1 5.7148438 6.4179688 A 7 7 0 0 1 6.3574219 5.7734375 A 7 7 0 0 1 6.4238281 5.7128906 A 7 7 0 0 1 10.908203 4 z M 8 7 A 1 1 0 0 0 7 8 A 1 1 0 0 0 8 9 A 1 1 0 0 0 9 8 A 1 1 0 0 0 8 7 z M 14 7 A 1 1 0 0 0 13 8 A 1 1 0 0 0 14 9 A 1 1 0 0 0 15 8 A 1 1 0 0 0 14 7 z M 4 12 L 10 12 L 10 13 L 11 13 L 11 12 L 18 12 L 18 18 L 4 18 L 4 12 z M 11 13 L 11 14 L 12 14 L 12 13 L 11 13 z M 11 14 L 10 14 L 10 15 L 10 16 L 12 16 L 12 15 L 11 15 L 11 14 z " transform="matrix(1 0 0 1 326 534.3622)"/>
    </g>
  </g>
</svg>
